assets/svg/currencies/fiat/USD.svg

<svg width="300" height="300" viewBox="0 0 300 300" fill="none" xmlns="http://www.w3.org/2000/svg">
<path d="M150 300C232.843 300 300 232.843 300 150C300 67.1573 232.843 0 150 0C67.1573 0 0 67.1573 0 150C0 232.843 67.1573 300 150 300Z" fill="#10BA97"/>
<path d="M167.472 213.988H199.404C203.861 213.988 207.217 213.107 209.472 211.345C211.727 209.583 212.854 206.807 212.854 203.017C212.854 199.226 211.727 196.45 209.472 194.688C207.217 192.873 203.861 191.966 199.404 191.966H167.472V179.954H198.775C206.64 179.954 212.644 181.929 216.787 185.88C220.929 189.777 223 195.489 223 203.017C223 210.544 220.929 216.257 216.787 220.154C212.644 224.051 206.64 226 198.775 226H167.472V213.988Z" fill="white"/>
<path d="M204.596 161.249C207.322 161.035 209.524 159.914 211.202 157.886C212.828 155.804 213.64 153.054 213.64 149.637C213.64 146.808 213.064 144.512 211.91 142.75C210.704 140.935 209.052 140.028 206.955 140.028C205.487 140.028 204.333 140.535 203.494 141.549C202.603 142.51 201.921 143.898 201.449 145.713C200.925 147.475 200.296 150.225 199.562 153.962C198.88 157.645 198.015 160.742 196.966 163.251C195.865 165.76 194.266 167.816 192.169 169.417C190.019 170.966 187.187 171.74 183.674 171.74C180.476 171.74 177.618 170.859 175.101 169.097C172.584 167.282 170.618 164.799 169.202 161.649C167.734 158.446 167 154.843 167 150.839C167 146.728 167.76 143.044 169.281 139.787C170.749 136.477 172.794 133.888 175.416 132.02C178.037 130.098 181 129.11 184.303 129.057L184.303 140.828C181.944 141.095 180.056 142.11 178.64 143.872C177.172 145.633 176.438 147.956 176.438 150.839C176.438 153.508 176.989 155.643 178.09 157.245C179.191 158.847 180.764 159.647 182.809 159.647C184.277 159.647 185.431 159.167 186.27 158.206C187.056 157.245 187.712 155.884 188.236 154.122C188.708 152.36 189.285 149.637 189.966 145.954C190.648 142.216 191.513 139.067 192.562 136.504C193.558 133.941 195.105 131.886 197.202 130.338C199.247 128.736 202 127.935 205.461 127.935C208.816 127.935 211.831 128.87 214.506 130.738C217.127 132.607 219.199 135.223 220.719 138.586C222.24 141.896 223 145.633 223 149.797C223 154.282 222.213 158.286 220.64 161.81C219.015 165.28 216.787 168.003 213.955 169.978C211.124 171.953 207.951 172.968 204.438 173.021L204.596 161.249Z" fill="white"/>
<path d="M167.472 120.728V101.269C167.472 95.6629 168.652 90.7245 171.011 86.4536C173.318 82.1292 176.569 78.8192 180.764 76.5235C184.906 74.1745 189.652 73 195 73C200.348 73 205.12 74.1745 209.315 76.5235C213.457 78.8192 216.708 82.1292 219.067 86.4536C221.375 90.7245 222.528 95.6629 222.528 101.269V120.728L167.472 120.728ZM212.697 101.269C212.697 96.1967 211.097 92.2728 207.899 89.4966C204.648 86.6671 200.348 85.2524 195 85.2524C189.652 85.2524 185.378 86.6671 182.18 89.4966C178.929 92.2728 177.303 96.1967 177.303 101.269V108.716L212.697 108.716V101.269Z" fill="white"/>
<path d="M138.8 106.8L122.78 117.42C117.86 108.18 111.62 103.56 104.06 103.56C100.1 103.56 96.9199 104.88 94.5199 107.52C92.1199 110.04 90.9199 113.28 90.9199 117.24C90.9199 124.92 97.2799 131.76 110 137.76C115.16 140.04 119.24 142.02 122.24 143.7C125.24 145.26 128.78 147.6 132.86 150.72C136.94 153.84 139.94 157.5 141.86 161.7C143.9 165.9 144.92 170.7 144.92 176.1C144.92 185.82 142.1 194.1 136.46 200.94C130.94 207.66 123.56 211.86 114.32 213.54V229.2H96.3199V213.54C88.0399 211.86 81.0199 208.02 75.2599 202.02C69.6199 195.9 65.8399 188.34 63.9199 179.34L80.1199 169.08C84.5599 186.84 93.0199 195.72 105.5 195.72C111.14 195.72 115.76 193.98 119.36 190.5C122.96 186.9 124.76 182.34 124.76 176.82C124.76 172.98 123.44 169.62 120.8 166.74C118.16 163.74 114.86 161.34 110.9 159.54C106.94 157.62 102.62 155.46 97.9399 153.06C93.2599 150.66 88.9399 148.2 84.9799 145.68C81.0199 143.04 77.7199 139.44 75.0799 134.88C72.4399 130.2 71.1199 124.8 71.1199 118.68C71.1199 110.76 73.4599 103.8 78.1399 97.8C82.8199 91.9201 88.8799 88.1401 96.3199 86.4601V70.8H114.32V86.82C124.76 89.58 132.92 96.24 138.8 106.8Z" fill="white"/>
</svg>

<svg viewBox="0 0 300 300" fill="none" xmlns="http://www.w3.org/2000/svg">
    <path d="M150 300c82.843 0 150-67.157 150-150S232.843 0 150 0 0 67.157 0 150s67.157 150 150 150z" fill="#10BA97"/>
    <path d="M167.472 213.988h31.932c4.457 0 7.813-.881 10.068-2.643 2.255-1.762 3.382-4.538 3.382-8.328 0-3.791-1.127-6.567-3.382-8.329-2.255-1.815-5.611-2.722-10.068-2.722h-31.932v-12.012h31.303c7.865 0 13.869 1.975 18.012 5.926 4.142 3.897 6.213 9.609 6.213 17.137 0 7.527-2.071 13.24-6.213 17.137-4.143 3.897-10.147 5.846-18.012 5.846h-31.303v-12.012zm37.124-52.739c2.726-.214 4.928-1.335 6.606-3.363 1.626-2.082 2.438-4.832 2.438-8.249 0-2.829-.576-5.125-1.73-6.887-1.206-1.815-2.858-2.722-4.955-2.722-1.468 0-2.622.507-3.461 1.521-.891.961-1.573 2.349-2.045 4.164-.524 1.762-1.153 4.512-1.887 8.249-.682 3.683-1.547 6.78-2.596 9.289-1.101 2.509-2.7 4.565-4.797 6.166-2.15 1.549-4.982 2.323-8.495 2.323-3.198 0-6.056-.881-8.573-2.643-2.517-1.815-4.483-4.298-5.899-7.448-1.468-3.203-2.202-6.806-2.202-10.81 0-4.111.76-7.795 2.281-11.052 1.468-3.31 3.513-5.899 6.135-7.767 2.621-1.922 5.584-2.91 8.887-2.963v11.771c-2.359.267-4.247 1.282-5.663 3.044-1.468 1.761-2.202 4.084-2.202 6.967 0 2.669.551 4.804 1.652 6.406 1.101 1.602 2.674 2.402 4.719 2.402 1.468 0 2.622-.48 3.461-1.441.786-.961 1.442-2.322 1.966-4.084.472-1.762 1.049-4.485 1.73-8.168.682-3.738 1.547-6.887 2.596-9.45.996-2.563 2.543-4.618 4.64-6.166 2.045-1.602 4.798-2.403 8.259-2.403 3.355 0 6.37.935 9.045 2.803 2.621 1.869 4.693 4.485 6.213 7.848 1.521 3.31 2.281 7.047 2.281 11.211 0 4.485-.787 8.489-2.36 12.013-1.625 3.47-3.853 6.193-6.685 8.168-2.831 1.975-6.004 2.99-9.517 3.043l.158-11.772zm-37.124-40.521v-19.459c0-5.606 1.18-10.544 3.539-14.815 2.307-4.325 5.558-7.635 9.753-9.93C184.906 74.174 189.652 73 195 73c5.348 0 10.12 1.174 14.315 3.523 4.142 2.296 7.393 5.606 9.752 9.93 2.308 4.272 3.461 9.21 3.461 14.816v19.459h-55.056zm45.225-19.459c0-5.072-1.6-8.996-4.798-11.772-3.251-2.83-7.551-4.245-12.899-4.245-5.348 0-9.622 1.415-12.82 4.245-3.251 2.776-4.877 6.7-4.877 11.772v7.447h35.394v-7.447zM138.8 106.8l-16.02 10.62c-4.92-9.24-11.16-13.86-18.72-13.86-3.96 0-7.14 1.32-9.54 3.96-2.4 2.52-3.6 5.76-3.6 9.72 0 7.68 6.36 14.52 19.08 20.52 5.16 2.28 9.24 4.26 12.24 5.94 3 1.56 6.54 3.9 10.62 7.02 4.08 3.12 7.08 6.78 9 10.98 2.04 4.2 3.06 9 3.06 14.4 0 9.72-2.82 18-8.46 24.84-5.52 6.72-12.9 10.92-22.14 12.6v15.66h-18v-15.66c-8.28-1.68-15.3-5.52-21.06-11.52-5.64-6.12-9.42-13.68-11.34-22.68l16.2-10.26c4.44 17.76 12.9 26.64 25.38 26.64 5.64 0 10.26-1.74 13.86-5.22 3.6-3.6 5.4-8.16 5.4-13.68 0-3.84-1.32-7.2-3.96-10.08-2.64-3-5.94-5.4-9.9-7.2a650.77 650.77 0 01-12.96-6.48c-4.68-2.4-9-4.86-12.96-7.38-3.96-2.64-7.26-6.24-9.9-10.8-2.64-4.68-3.96-10.08-3.96-16.2 0-7.92 2.34-14.88 7.02-20.88 4.68-5.88 10.74-9.66 18.18-11.34V70.8h18v16.02c10.44 2.76 18.6 9.42 24.48 19.98z" fill="#fff"/>
</svg>
